X: 09035
T: ERNIE'S HORNPIPE
C: Bob McQuillen 25 Aug 90
B: Bob's Note Book 9 #35
R: hornpipe, reel
Z: 2019 John Chambers <jc:trillian.mit.edu>
M: C
L: 1/8
K: Em
GE \
| B,DEG EGBd | edeg edBA | GEGB AGED | B,DEB, D2GE |
| B,DEG EGBd | edeg edBA | GEGB BdBA | G2E2 E2 :|
|: ef \
| g2gf edef | gagf edBd | g2gf edeg | dedB d2Bd |
| edeg dBGA | BdBG AGBA | GEGB dBAB | G2E2 E2 :|
%%begintext align
%% I just thought
%% that Ernie Spence, of Reading, MA, needed
%% this tune - Don't you agree? After all, he's
%% been awfully nice to me for so many years.
%%endtext

%%sep 1 1 500

%%sep 1 1 500

